X:1
T:Faithful Shepherd. ET.23, The
T:Faithful Shepherd. ET.23, The
T:Set by McHoward
C:Set by McHoward
L:1/8
Q:1/4=120
M:4/4
K:D
V:1 treble 
V:1
 A2 | FG AF D2 d2 |{fg} a2 gf e2 A2 | B2 c2 dA GF | (F2 E2) z2 E2 | AB cd ec BA | df af{f} e2 d2 | %7
w: What|h- ave I- * done ye|pow- ers a- bove to|mer- it th- us y- our|H- ate Why|w- ill y- ou f- orce m- e|fr- om th- e plains to|
{d} c2 BA F2 ^G2 | A4 || cd | ed cB{B} A3 ^G/F/ | B2 c2 d2{ef} g2 | fd cB F2 A2"^bar line added" | %13
w: live i- n o- dious|state|For- g-|ive m- e Court- i- ers if|I slight Your splen-|d- id joys & you For|
 B4 z2 d2 |{B} A2 GF"^MS incomplete"{A} G2 F<E | %15
w: |had y- ou seen m- y|

